X:15887
T:St. Anne's Reel
M:4/4
L:1/8
R:Reel
Z:Originally French Canadian, now firmly adopted in Ireland. Madison.
K:D
|:de|fedf edcB|A2 FA DAFA|B2GB EBGB|A2 FA DAFA|fedf edcB|A2 FA DAFA|B2
 ed cABc|dfec d2:|:de|f2fg fedc|Bggf g2gf|edcB Aceg|baag abag|f2fg f
edc|B
ggf g2gf|edcB ABcd|eddc d2:|


